img/social/be.svg

<svg width="60" height="60" viewBox="0 0 60 60" fill="none" xmlns="http://www.w3.org/2000/svg">
<rect width="59.9333" height="59.9333" rx="29.9667" fill="black"/>
<path fill-rule="evenodd" clip-rule="evenodd" d="M17.9667 29.8254V37.1841L22.242 37.1677C26.9724 37.1495 26.6902 37.1666 27.6726 36.8389C28.3666 36.6074 28.7898 36.3494 29.307 35.8425C29.6863 35.4707 29.7876 35.3379 29.9756 34.9661C30.3662 34.1932 30.5322 33.1899 30.4324 32.2065C30.2575 30.4842 29.4787 29.4378 28.2155 29.2276C27.902 29.1754 27.8885 29.1686 28.0382 29.139C28.1273 29.1213 28.3556 29.0313 28.5454 28.939C29.5533 28.4487 30.0478 27.3642 29.9113 25.9435C29.72 23.9529 28.425 22.7293 26.2853 22.5172C25.9597 22.485 24.3609 22.4667 21.8707 22.4667H17.9667V29.8254ZM33.5218 24.2655V25.188H36.6141H39.7064V24.2655V23.343H36.6141H33.5218V24.2655ZM26.0575 25.2382C26.336 25.371 26.5263 25.6149 26.6418 25.9874C26.7246 26.2541 26.736 26.3817 26.7157 26.8176C26.6871 27.4333 26.5921 27.7607 26.373 27.9995C26.0445 28.3574 26.1334 28.3457 23.6241 28.3614L21.3869 28.3754V26.7586V25.1418H23.6211C25.7915 25.1418 25.861 25.1446 26.0575 25.2382ZM36.0753 26.2336C34.6596 26.35 33.4737 26.8788 32.602 27.7824C31.8649 28.5465 31.3769 29.5358 31.1228 30.7814C30.9758 31.5017 30.9771 32.6519 31.1256 33.3395C31.6219 35.6383 33.129 37.0431 35.4678 37.3873C36.1724 37.4909 37.4743 37.4935 38.09 37.3925C38.9825 37.246 39.6587 37.0102 40.2336 36.6449C41.2114 36.0234 41.7289 35.1432 41.8376 33.9168L41.8714 33.5363H40.5409H39.2104L39.154 33.8009C39.0203 34.4283 38.4945 34.8621 37.6555 35.0371C37.2413 35.1235 36.4355 35.1215 36.0544 35.033C35.3543 34.8706 34.7952 34.4541 34.509 33.8818C34.368 33.5999 34.2301 33.0434 34.2262 32.7407L34.2246 32.6138H38.0956H41.9667L41.942 31.6106C41.923 30.8367 41.8954 30.5105 41.8212 30.1834C41.2801 27.7954 39.8633 26.5028 37.5142 26.2538C37.0623 26.2059 36.5071 26.1981 36.0753 26.2336ZM37.6917 28.5479C38.4143 28.8245 38.9055 29.5102 39.0267 30.4114L39.0562 30.6305H36.6404C34.5022 30.6305 34.2246 30.6224 34.2246 30.5599C34.2246 30.521 34.2682 30.3602 34.3215 30.2024C34.6111 29.3448 35.2914 28.6837 36.0881 28.4856C36.4889 28.3859 37.3567 28.4196 37.6917 28.5479ZM26.0805 30.7243C26.5064 30.8407 26.9136 31.2373 27.1076 31.7245C27.2519 32.087 27.2666 33.051 27.1338 33.4488C26.9343 34.0468 26.4475 34.4166 25.7442 34.5043C25.551 34.5284 24.4915 34.5488 23.3899 34.5496L21.3869 34.551V32.6138V30.6766L23.6476 30.6769C25.0416 30.6771 25.9743 30.6952 26.0805 30.7243Z" fill="white"/>
</svg>

<svg width="60" height="60" fill="none" xmlns="http://www.w3.org/2000/svg"><rect width="59.933" height="59.933" rx="29.967" fill="#000"/><path fill-rule="evenodd" clip-rule="evenodd" d="M17.967 29.825v7.36l4.275-.017c4.73-.018 4.448-.001 5.43-.33.695-.23 1.118-.489 1.635-.995.38-.372.48-.505.669-.877.39-.773.556-1.776.456-2.76-.174-1.722-.953-2.768-2.216-2.978-.314-.053-.328-.06-.178-.089a2.97 2.97 0 0 0 .507-.2c1.008-.49 1.503-1.575 1.366-2.995-.191-1.991-1.486-3.215-3.626-3.427-.325-.032-1.924-.05-4.414-.05h-3.904v7.358Zm15.555-5.56v.923h6.184v-1.845h-6.184v.922Zm-7.464.973c.278.133.468.377.584.75.083.266.094.394.074.83-.029.615-.124.943-.343 1.181-.329.358-.24.347-2.749.362l-2.237.014v-3.233h2.234c2.17 0 2.24.003 2.437.096Zm10.017.996c-1.415.116-2.601.645-3.473 1.548-.737.765-1.225 1.754-1.48 3-.146.72-.145 1.87.004 2.558.496 2.298 2.003 3.703 4.342 4.047.704.104 2.006.106 2.622.005.892-.146 1.569-.382 2.144-.747.977-.622 1.495-1.502 1.604-2.728l.033-.38h-2.66l-.057.264c-.134.627-.66 1.061-1.498 1.236-.415.087-1.22.084-1.602-.004-.7-.162-1.259-.579-1.545-1.151-.141-.282-.279-.839-.283-1.141l-.001-.127h7.742l-.025-1.003c-.019-.774-.047-1.1-.12-1.428-.542-2.388-1.959-3.68-4.308-3.93a8.32 8.32 0 0 0-1.439-.02Zm1.617 2.314c.722.277 1.214.962 1.335 1.863l.03.22H36.64c-2.138 0-2.415-.009-2.415-.071 0-.039.043-.2.096-.358.29-.857.97-1.518 1.767-1.716.4-.1 1.269-.066 1.604.062ZM26.08 30.724c.425.117.833.513 1.027 1 .144.363.159 1.327.026 1.725-.2.598-.686.968-1.39 1.055-.193.024-1.253.045-2.354.046l-2.003.001v-3.874h2.26c1.395 0 2.327.018 2.434.047Z" fill="#fff"/></svg>
